X:1
T:Trusting in Thee
T:Trusting in Thee
T:George Coles Stebbins
T:Frances Jane (Fanny) Crosby, 1899
T:Public Domain Courtesy of the Cyber Hymnal™
T:Public Domain Courtesy of the Cyber Hymnal™
C:George Coles Stebbins
Z:Public Domain
Z:Courtesy of the Cyber Hymnal™
%%score ( 1 2 ) ( 3 4 )
L:1/8
Q:1/4=105
M:4/4
K:Ab
V:1 treble 
V:2 treble 
V:3 bass 
V:4 bass 
V:1
 [CE]2 [=B,=D]>[_DF] [CE]2 [EA][E=B] | [Ec]2 [Fd]>[FA] [Ec]4 | [Ec]2 [DB]>[DE] [DB]4 | %3
w: 1.~Je- sus, my shep- herd and|Sav- ior di- vine,|Trust- ing in Thee,|
w: 2.~What tho’ a- round me the|bil- lows may roll?|Trust- ing in Thee,|
w: 3.~What if the sha- dows en-|com- pass my way?|Trust- ing in Thee,|
w: 4.~Je- sus, my shep- herd, Re-|deem- er and friend,|Trust- ing in Thee,|
 [CB]2 [CA]>C [CE]4 | [CE]2 [=B,=D]>[_DF] [CE]2 [EA][E=B] | [Ec]2 [Fd]>[FA] [Ec]4 | %6
w: trust- ing in Thee;|O what a fore- taste of|glo- ry is mine|
w: trust- ing in Thee;|Firm on the rock I have|an- chored my soul;|
w: trust- ing in Thee;|Lord, Thou hast prom- ised Thy|strength as my day,|
w: trust- ing in Thee;|Thou wilt de- liv- er and|Thou wilt de- fend,|
 [Ae]2 [Ec][CA] [DB]2 [DE][DB] | [CA]6 z2 ||"^Refrain" [FA]4 [Fd]4 | [Fd]4 [Ec]4 | %10
w: While I am trust- ing in|Thee!|||
w: Lord, I am trust- ing in|Thee!|Trust- ing,|trust- ing,|
w: While I am trust- ing in|Thee.|||
w: While I am trust- ing in|Thee.|||
 [Ec]2 [EB]>[EB] [=DB]2 [Ec][A=d] | !fermata!e6 !fermata!z2 | [CE]2 [=B,=D]>[_DF] [CE]2 [EA][E=B] | %13
w: |||
w: Je- sus my Sav- ior, in|Thee|(in Thee); O what a fore-|
w: |||
w: |||
 [Ec]2 [Fd]>[FA] [Ec]4 | [Ae]2 [Ec][CA] [DB]2 [DE][EB] | [CA]6 z2 |] %16
w: |||
w: taste of glo- ry|is mine, While I am trust-|ing|
w: |||
w: |||
V:2
 x8 | x8 | x8 | x7/2 C/ x4 | x8 | x8 | x8 | x8 || x8 | x8 | x8 | G2 A2 B2 x2 | x8 | x8 | x8 | x8 |] %16
V:3
 [A,,A,]2 [A,,A,]>[A,,A,] [A,,A,]2 [C,A,][E,G,] | A,2 A,>A, A,4 | [E,G,]2 [E,G,]>[E,G,] [E,G,]4 | %3
w: ~ ~ ~ ~ ~ ~|~ ~ ~ ~|~ ~ ~ ~|
 [A,,A,]2 [A,,E,]>[A,,E,] [A,,A,]4 | [A,,A,]2 [A,,A,]>[A,,A,] [A,,A,]2 [C,A,][E,G,] | %5
w: ~ ~ ~ ~|~ ~ ~ ~ ~ ~|
 A,2 A,>A, A,4 | [E,C]2 [E,A,][E,A,] [E,G,]2 [E,G,][E,G,] | [A,,A,]6 z2 || %8
w: ~ ~ ~ ~|~ ~ ~ ~ ~ ~|~|
 [D,A,]2 [D,D]2 [D,A,]2 [D,A,]2 | [A,,A,]2 [A,,A,]2 [A,,A,]2 [A,,A,]2 | %10
w: Trust- ing, trust- ing,|I am trust- ing|
 [E,A,]2 [E,G,]>[E,G,] [B,,F,]2 [B,,A,][B,,B,] | B,2 C2 D2 z2 | %12
w: ||
 [A,,A,]2 [A,,A,]>[A,,A,] [A,,A,]2 [C,A,][E,G,] | A,2 A,>A, A,4 | %14
w: ||
 [E,C]2 [E,A,][E,A,] [E,G,]2 [E,G,][E,G,] | [A,,A,]6 z2 |] %16
w: ||
V:4
 x8 | A,2 A,>A, A,4 | x8 | x8 | x8 | A,2 A,>A, A,4 | x8 | x8 || x8 | x8 | x8 | E,6 x2 | x8 | %13
 A,2 A,>A, A,4 | x8 | x8 |] %16

